X:215
U: ~ = !turn!
%%topmmargin 3cm
T:Western Hornpipe
B:Traditional Irish Fiddle Tunes. Randy Miller and Jack Perron.
Z:Transcribed by Ralph Palmer
S:Michael Coleman
R:Hornpipe
L:1/8
M:C|
K:C
gf | ec ~c2 GcEc | ec ~c2 GcEc | AF ~F2 CFA,F | ((3ABc) Bd cegf |
ec ~c2 GcEc | ec ~c2 GcEc | AF ~F2 CFA,F | ((3ABc) Bd c2 ::
gf | Pe2 ce gage | Pf2 df abaf | Pe2 ce agfe | dcBA G2 gf |
Pe2 ce gage | Pf2 df abaf | ((3ege) ce ((3ded) Bd | ((3cdc) Bd c2 :|]
